src/assets/flags/gd.svg

<?xml version="1.0" encoding="UTF-8"?>
<svg xmlns="http://www.w3.org/2000/svg" xmlns:xlink="http://www.w3.org/1999/xlink" width="25px" height="19px" viewBox="0 0 25 19" version="1.1">
<g id="surface1">
<rect x="0" y="0" width="25" height="19" style="fill:rgb(80.784315%,6.666667%,14.901961%);fill-opacity:1;stroke:none;"/>
<path style=" stroke:none;fill-rule:nonzero;fill:rgb(0%,47.843137%,36.862746%);fill-opacity:1;" d="M 2.625 2.660156 L 22.375 2.660156 L 22.375 16.339844 L 2.625 16.339844 Z M 2.625 2.660156 "/>
<path style=" stroke:none;fill-rule:nonzero;fill:rgb(98.823529%,81.960785%,8.627451%);fill-opacity:1;" d="M 2.625 2.664062 L 22.375 2.664062 L 2.625 16.34375 L 22.375 16.34375 Z M 2.625 2.664062 "/>
<path style=" stroke:none;fill-rule:nonzero;fill:rgb(80.784315%,6.666667%,14.901961%);fill-opacity:1;" d="M 14.746094 9.503906 C 14.746094 8.246094 13.738281 7.222656 12.496094 7.222656 C 11.253906 7.222656 10.246094 8.246094 10.246094 9.503906 C 10.246094 10.761719 11.253906 11.785156 12.496094 11.785156 C 13.738281 11.785156 14.746094 10.761719 14.746094 9.503906 Z M 14.746094 9.503906 "/>
<path style=" stroke:none;fill-rule:nonzero;fill:rgb(98.823529%,81.960785%,8.627451%);fill-opacity:1;" d="M 12.5 7.410156 L 11.863281 9.398438 L 12.84375 9.71875 "/>
<path style=" stroke:none;fill-rule:nonzero;fill:rgb(98.823529%,81.960785%,8.627451%);fill-opacity:1;" d="M 12.5 7.410156 L 13.136719 9.398438 L 12.15625 9.71875 "/>
<path style=" stroke:none;fill-rule:nonzero;fill:rgb(98.823529%,81.960785%,8.627451%);fill-opacity:1;" d="M 14.460938 8.855469 L 12.398438 8.855469 L 12.398438 9.898438 "/>
<path style=" stroke:none;fill-rule:nonzero;fill:rgb(98.823529%,81.960785%,8.627451%);fill-opacity:1;" d="M 14.460938 8.855469 L 12.792969 10.082031 L 12.1875 9.238281 "/>
<path style=" stroke:none;fill-rule:nonzero;fill:rgb(98.823529%,81.960785%,8.627451%);fill-opacity:1;" d="M 13.710938 11.191406 L 13.074219 9.203125 L 12.09375 9.527344 "/>
<path style=" stroke:none;fill-rule:nonzero;fill:rgb(98.823529%,81.960785%,8.627451%);fill-opacity:1;" d="M 13.710938 11.191406 L 12.042969 9.960938 L 12.648438 9.117188 "/>
<path style=" stroke:none;fill-rule:nonzero;fill:rgb(98.823529%,81.960785%,8.627451%);fill-opacity:1;" d="M 11.289062 11.191406 L 12.957031 9.960938 L 12.351562 9.117188 "/>
<path style=" stroke:none;fill-rule:nonzero;fill:rgb(98.823529%,81.960785%,8.627451%);fill-opacity:1;" d="M 11.289062 11.191406 L 11.925781 9.203125 L 12.90625 9.527344 "/>
<path style=" stroke:none;fill-rule:nonzero;fill:rgb(98.823529%,81.960785%,8.627451%);fill-opacity:1;" d="M 10.539062 8.855469 L 12.207031 10.082031 L 12.8125 9.238281 "/>
<path style=" stroke:none;fill-rule:nonzero;fill:rgb(98.823529%,81.960785%,8.627451%);fill-opacity:1;" d="M 10.539062 8.855469 L 12.601562 8.855469 L 12.601562 9.898438 "/>
<path style=" stroke:none;fill-rule:nonzero;fill:rgb(98.823529%,81.960785%,8.627451%);fill-opacity:1;" d="M 7.410156 0.09375 L 7.035156 1.269531 L 7.613281 1.460938 "/>
<path style=" stroke:none;fill-rule:nonzero;fill:rgb(98.823529%,81.960785%,8.627451%);fill-opacity:1;" d="M 7.410156 0.09375 L 7.785156 1.269531 L 7.207031 1.460938 "/>
<path style=" stroke:none;fill-rule:nonzero;fill:rgb(98.823529%,81.960785%,8.627451%);fill-opacity:1;" d="M 8.570312 0.949219 L 7.351562 0.949219 L 7.351562 1.566406 "/>
<path style=" stroke:none;fill-rule:nonzero;fill:rgb(98.823529%,81.960785%,8.627451%);fill-opacity:1;" d="M 8.570312 0.949219 L 7.582031 1.675781 L 7.226562 1.175781 "/>
<path style=" stroke:none;fill-rule:nonzero;fill:rgb(98.823529%,81.960785%,8.627451%);fill-opacity:1;" d="M 8.125 2.328125 L 7.75 1.15625 L 7.171875 1.34375 "/>
<path style=" stroke:none;fill-rule:nonzero;fill:rgb(98.823529%,81.960785%,8.627451%);fill-opacity:1;" d="M 8.125 2.328125 L 7.140625 1.601562 L 7.5 1.105469 "/>
<path style=" stroke:none;fill-rule:nonzero;fill:rgb(98.823529%,81.960785%,8.627451%);fill-opacity:1;" d="M 6.695312 2.328125 L 7.679688 1.601562 L 7.320312 1.105469 "/>
<path style=" stroke:none;fill-rule:nonzero;fill:rgb(98.823529%,81.960785%,8.627451%);fill-opacity:1;" d="M 6.695312 2.328125 L 7.070312 1.15625 L 7.648438 1.34375 "/>
<path style=" stroke:none;fill-rule:nonzero;fill:rgb(98.823529%,81.960785%,8.627451%);fill-opacity:1;" d="M 6.25 0.949219 L 7.238281 1.675781 L 7.59375 1.175781 "/>
<path style=" stroke:none;fill-rule:nonzero;fill:rgb(98.823529%,81.960785%,8.627451%);fill-opacity:1;" d="M 6.25 0.949219 L 7.46875 0.949219 L 7.46875 1.566406 "/>
<path style=" stroke:none;fill-rule:nonzero;fill:rgb(98.823529%,81.960785%,8.627451%);fill-opacity:1;" d="M 12.5 0.09375 L 12.125 1.269531 L 12.703125 1.460938 "/>
<path style=" stroke:none;fill-rule:nonzero;fill:rgb(98.823529%,81.960785%,8.627451%);fill-opacity:1;" d="M 12.5 0.09375 L 12.875 1.269531 L 12.296875 1.460938 "/>
<path style=" stroke:none;fill-rule:nonzero;fill:rgb(98.823529%,81.960785%,8.627451%);fill-opacity:1;" d="M 13.660156 0.949219 L 12.441406 0.949219 L 12.441406 1.566406 "/>
<path style=" stroke:none;fill-rule:nonzero;fill:rgb(98.823529%,81.960785%,8.627451%);fill-opacity:1;" d="M 13.660156 0.949219 L 12.671875 1.675781 L 12.316406 1.175781 "/>
<path style=" stroke:none;fill-rule:nonzero;fill:rgb(98.823529%,81.960785%,8.627451%);fill-opacity:1;" d="M 13.214844 2.328125 L 12.839844 1.15625 L 12.261719 1.34375 "/>
<path style=" stroke:none;fill-rule:nonzero;fill:rgb(98.823529%,81.960785%,8.627451%);fill-opacity:1;" d="M 13.214844 2.328125 L 12.230469 1.601562 L 12.589844 1.105469 "/>
<path style=" stroke:none;fill-rule:nonzero;fill:rgb(98.823529%,81.960785%,8.627451%);fill-opacity:1;" d="M 11.785156 2.328125 L 12.769531 1.601562 L 12.410156 1.105469 "/>
<path style=" stroke:none;fill-rule:nonzero;fill:rgb(98.823529%,81.960785%,8.627451%);fill-opacity:1;" d="M 11.785156 2.328125 L 12.160156 1.15625 L 12.738281 1.34375 "/>
<path style=" stroke:none;fill-rule:nonzero;fill:rgb(98.823529%,81.960785%,8.627451%);fill-opacity:1;" d="M 11.339844 0.949219 L 12.328125 1.675781 L 12.683594 1.175781 "/>
<path style=" stroke:none;fill-rule:nonzero;fill:rgb(98.823529%,81.960785%,8.627451%);fill-opacity:1;" d="M 11.339844 0.949219 L 12.558594 0.949219 L 12.558594 1.566406 "/>
<path style=" stroke:none;fill-rule:nonzero;fill:rgb(98.823529%,81.960785%,8.627451%);fill-opacity:1;" d="M 17.589844 0.09375 L 17.214844 1.269531 L 17.792969 1.460938 "/>
<path style=" stroke:none;fill-rule:nonzero;fill:rgb(98.823529%,81.960785%,8.627451%);fill-opacity:1;" d="M 17.589844 0.09375 L 17.964844 1.269531 L 17.386719 1.460938 "/>
<path style=" stroke:none;fill-rule:nonzero;fill:rgb(98.823529%,81.960785%,8.627451%);fill-opacity:1;" d="M 18.75 0.949219 L 17.53125 0.949219 L 17.53125 1.566406 "/>
<path style=" stroke:none;fill-rule:nonzero;fill:rgb(98.823529%,81.960785%,8.627451%);fill-opacity:1;" d="M 18.75 0.949219 L 17.761719 1.675781 L 17.40625 1.175781 "/>
<path style=" stroke:none;fill-rule:nonzero;fill:rgb(98.823529%,81.960785%,8.627451%);fill-opacity:1;" d="M 18.304688 2.328125 L 17.929688 1.15625 L 17.351562 1.34375 "/>
<path style=" stroke:none;fill-rule:nonzero;fill:rgb(98.823529%,81.960785%,8.627451%);fill-opacity:1;" d="M 18.304688 2.328125 L 17.320312 1.601562 L 17.679688 1.105469 "/>
<path style=" stroke:none;fill-rule:nonzero;fill:rgb(98.823529%,81.960785%,8.627451%);fill-opacity:1;" d="M 16.875 2.328125 L 17.859375 1.601562 L 17.5 1.105469 "/>
<path style=" stroke:none;fill-rule:nonzero;fill:rgb(98.823529%,81.960785%,8.627451%);fill-opacity:1;" d="M 16.875 2.328125 L 17.25 1.15625 L 17.828125 1.34375 "/>
<path style=" stroke:none;fill-rule:nonzero;fill:rgb(98.823529%,81.960785%,8.627451%);fill-opacity:1;" d="M 16.429688 0.949219 L 17.417969 1.675781 L 17.773438 1.175781 "/>
<path style=" stroke:none;fill-rule:nonzero;fill:rgb(98.823529%,81.960785%,8.627451%);fill-opacity:1;" d="M 16.429688 0.949219 L 17.648438 0.949219 L 17.648438 1.566406 "/>
<path style=" stroke:none;fill-rule:nonzero;fill:rgb(80.784315%,6.666667%,14.901961%);fill-opacity:1;" d="M 3.996094 9.527344 C 4.292969 10.089844 4.75 10.546875 5.304688 10.84375 C 5.28125 10.222656 5.132812 9.617188 4.863281 9.0625 Z M 3.996094 9.527344 "/>
<path style=" stroke:none;fill-rule:nonzero;fill:rgb(98.823529%,81.960785%,8.627451%);fill-opacity:1;" d="M 3.519531 7.707031 C 3.925781 8.566406 2.460938 10.625 4.90625 11.105469 C 4.574219 10.621094 4.425781 10.035156 4.480469 9.449219 C 5.023438 9.703125 5.46875 10.132812 5.75 10.667969 C 6.390625 8.3125 4.109375 8.457031 3.519531 7.707031 "/>
<path style=" stroke:none;fill-rule:nonzero;fill:rgb(98.823529%,81.960785%,8.627451%);fill-opacity:1;" d="M 7.410156 16.507812 L 7.035156 17.679688 L 7.613281 17.871094 "/>
<path style=" stroke:none;fill-rule:nonzero;fill:rgb(98.823529%,81.960785%,8.627451%);fill-opacity:1;" d="M 7.410156 16.507812 L 7.785156 17.679688 L 7.207031 17.871094 "/>
<path style=" stroke:none;fill-rule:nonzero;fill:rgb(98.823529%,81.960785%,8.627451%);fill-opacity:1;" d="M 8.570312 17.359375 L 7.351562 17.359375 L 7.351562 17.976562 "/>
<path style=" stroke:none;fill-rule:nonzero;fill:rgb(98.823529%,81.960785%,8.627451%);fill-opacity:1;" d="M 8.570312 17.359375 L 7.582031 18.085938 L 7.226562 17.585938 "/>
<path style=" stroke:none;fill-rule:nonzero;fill:rgb(98.823529%,81.960785%,8.627451%);fill-opacity:1;" d="M 8.125 18.742188 L 7.75 17.566406 L 7.171875 17.757812 "/>
<path style=" stroke:none;fill-rule:nonzero;fill:rgb(98.823529%,81.960785%,8.627451%);fill-opacity:1;" d="M 8.125 18.742188 L 7.140625 18.015625 L 7.5 17.515625 "/>
<path style=" stroke:none;fill-rule:nonzero;fill:rgb(98.823529%,81.960785%,8.627451%);fill-opacity:1;" d="M 6.695312 18.742188 L 7.679688 18.015625 L 7.320312 17.515625 "/>
<path style=" stroke:none;fill-rule:nonzero;fill:rgb(98.823529%,81.960785%,8.627451%);fill-opacity:1;" d="M 6.695312 18.742188 L 7.070312 17.566406 L 7.648438 17.757812 "/>
<path style=" stroke:none;fill-rule:nonzero;fill:rgb(98.823529%,81.960785%,8.627451%);fill-opacity:1;" d="M 6.25 17.359375 L 7.238281 18.085938 L 7.59375 17.585938 "/>
<path style=" stroke:none;fill-rule:nonzero;fill:rgb(98.823529%,81.960785%,8.627451%);fill-opacity:1;" d="M 6.25 17.359375 L 7.46875 17.359375 L 7.46875 17.976562 "/>
<path style=" stroke:none;fill-rule:nonzero;fill:rgb(98.823529%,81.960785%,8.627451%);fill-opacity:1;" d="M 12.5 16.507812 L 12.125 17.679688 L 12.703125 17.871094 "/>
<path style=" stroke:none;fill-rule:nonzero;fill:rgb(98.823529%,81.960785%,8.627451%);fill-opacity:1;" d="M 12.5 16.507812 L 12.875 17.679688 L 12.296875 17.871094 "/>
<path style=" stroke:none;fill-rule:nonzero;fill:rgb(98.823529%,81.960785%,8.627451%);fill-opacity:1;" d="M 13.660156 17.359375 L 12.441406 17.359375 L 12.441406 17.976562 "/>
<path style=" stroke:none;fill-rule:nonzero;fill:rgb(98.823529%,81.960785%,8.627451%);fill-opacity:1;" d="M 13.660156 17.359375 L 12.671875 18.085938 L 12.316406 17.585938 "/>
<path style=" stroke:none;fill-rule:nonzero;fill:rgb(98.823529%,81.960785%,8.627451%);fill-opacity:1;" d="M 13.214844 18.742188 L 12.839844 17.566406 L 12.261719 17.757812 "/>
<path style=" stroke:none;fill-rule:nonzero;fill:rgb(98.823529%,81.960785%,8.627451%);fill-opacity:1;" d="M 13.214844 18.742188 L 12.230469 18.015625 L 12.589844 17.515625 "/>
<path style=" stroke:none;fill-rule:nonzero;fill:rgb(98.823529%,81.960785%,8.627451%);fill-opacity:1;" d="M 11.785156 18.742188 L 12.769531 18.015625 L 12.410156 17.515625 "/>
<path style=" stroke:none;fill-rule:nonzero;fill:rgb(98.823529%,81.960785%,8.627451%);fill-opacity:1;" d="M 11.785156 18.742188 L 12.160156 17.566406 L 12.738281 17.757812 "/>
<path style=" stroke:none;fill-rule:nonzero;fill:rgb(98.823529%,81.960785%,8.627451%);fill-opacity:1;" d="M 11.339844 17.359375 L 12.328125 18.085938 L 12.683594 17.585938 "/>
<path style=" stroke:none;fill-rule:nonzero;fill:rgb(98.823529%,81.960785%,8.627451%);fill-opacity:1;" d="M 11.339844 17.359375 L 12.558594 17.359375 L 12.558594 17.976562 "/>
<path style=" stroke:none;fill-rule:nonzero;fill:rgb(98.823529%,81.960785%,8.627451%);fill-opacity:1;" d="M 17.589844 16.507812 L 17.214844 17.679688 L 17.792969 17.871094 "/>
<path style=" stroke:none;fill-rule:nonzero;fill:rgb(98.823529%,81.960785%,8.627451%);fill-opacity:1;" d="M 17.589844 16.507812 L 17.964844 17.679688 L 17.386719 17.871094 "/>
<path style=" stroke:none;fill-rule:nonzero;fill:rgb(98.823529%,81.960785%,8.627451%);fill-opacity:1;" d="M 18.75 17.359375 L 17.53125 17.359375 L 17.53125 17.976562 "/>
<path style=" stroke:none;fill-rule:nonzero;fill:rgb(98.823529%,81.960785%,8.627451%);fill-opacity:1;" d="M 18.75 17.359375 L 17.761719 18.085938 L 17.40625 17.585938 "/>
<path style=" stroke:none;fill-rule:nonzero;fill:rgb(98.823529%,81.960785%,8.627451%);fill-opacity:1;" d="M 18.304688 18.742188 L 17.929688 17.566406 L 17.351562 17.757812 "/>
<path style=" stroke:none;fill-rule:nonzero;fill:rgb(98.823529%,81.960785%,8.627451%);fill-opacity:1;" d="M 18.304688 18.742188 L 17.320312 18.015625 L 17.679688 17.515625 "/>
<path style=" stroke:none;fill-rule:nonzero;fill:rgb(98.823529%,81.960785%,8.627451%);fill-opacity:1;" d="M 16.875 18.742188 L 17.859375 18.015625 L 17.5 17.515625 "/>
<path style=" stroke:none;fill-rule:nonzero;fill:rgb(98.823529%,81.960785%,8.627451%);fill-opacity:1;" d="M 16.875 18.742188 L 17.25 17.566406 L 17.828125 17.757812 "/>
<path style=" stroke:none;fill-rule:nonzero;fill:rgb(98.823529%,81.960785%,8.627451%);fill-opacity:1;" d="M 16.429688 17.359375 L 17.417969 18.085938 L 17.773438 17.585938 "/>
<path style=" stroke:none;fill-rule:nonzero;fill:rgb(98.823529%,81.960785%,8.627451%);fill-opacity:1;" d="M 16.429688 17.359375 L 17.648438 17.359375 L 17.648438 17.976562 "/>
</g>
</svg>

<svg xmlns="http://www.w3.org/2000/svg" width="25" height="19" viewBox="0 0 25 19"><path d="M0 0h25v19H0z" style="fill:#ce1126;fill-opacity:1;stroke:none"/><path d="M2.625 2.66h19.75v13.68H2.625Zm0 0" style="stroke:none;fill-rule:nonzero;fill:#007a5e;fill-opacity:1"/><path d="M2.625 2.664h19.75l-19.75 13.68h19.75Zm0 0" style="stroke:none;fill-rule:nonzero;fill:#fcd116;fill-opacity:1"/><path d="M14.746 9.504c0-1.258-1.008-2.281-2.25-2.281s-2.25 1.023-2.25 2.28c0 1.259 1.008 2.282 2.25 2.282s2.25-1.023 2.25-2.281m0 0" style="stroke:none;fill-rule:nonzero;fill:#ce1126;fill-opacity:1"/><path d="m12.5 7.41-.637 1.988.98.32" style="stroke:none;fill-rule:nonzero;fill:#fcd116;fill-opacity:1"/><path d="m12.5 7.41.637 1.988-.98.32" style="stroke:none;fill-rule:nonzero;fill:#fcd116;fill-opacity:1"/><path d="M14.46 8.855h-2.062v1.043" style="stroke:none;fill-rule:nonzero;fill:#fcd116;fill-opacity:1"/><path d="m14.46 8.855-1.667 1.227-.605-.844" style="stroke:none;fill-rule:nonzero;fill:#fcd116;fill-opacity:1"/><path d="m13.71 11.191-.636-1.988-.98.324" style="stroke:none;fill-rule:nonzero;fill:#fcd116;fill-opacity:1"/><path d="m13.71 11.191-1.667-1.23.605-.844" style="stroke:none;fill-rule:nonzero;fill:#fcd116;fill-opacity:1"/><path d="m11.29 11.191 1.667-1.23-.605-.844" style="stroke:none;fill-rule:nonzero;fill:#fcd116;fill-opacity:1"/><path d="m11.29 11.191.636-1.988.98.324" style="stroke:none;fill-rule:nonzero;fill:#fcd116;fill-opacity:1"/><path d="m10.54 8.855 1.667 1.227.605-.844" style="stroke:none;fill-rule:nonzero;fill:#fcd116;fill-opacity:1"/><path d="M10.54 8.855h2.062v1.043M7.41.094 7.035 1.27l.578.19" style="stroke:none;fill-rule:nonzero;fill:#fcd116;fill-opacity:1"/><path d="m7.41.094.375 1.176-.578.19" style="stroke:none;fill-rule:nonzero;fill:#fcd116;fill-opacity:1"/><path d="M8.57.95H7.352v.616" style="stroke:none;fill-rule:nonzero;fill:#fcd116;fill-opacity:1"/><path d="m8.57.95-.988.726-.355-.5" style="stroke:none;fill-rule:nonzero;fill:#fcd116;fill-opacity:1"/><path d="M8.125 2.328 7.75 1.156l-.578.188" style="stroke:none;fill-rule:nonzero;fill:#fcd116;fill-opacity:1"/><path d="m8.125 2.328-.984-.726.359-.497" style="stroke:none;fill-rule:nonzero;fill:#fcd116;fill-opacity:1"/><path d="m6.695 2.328.985-.726-.36-.497" style="stroke:none;fill-rule:nonzero;fill:#fcd116;fill-opacity:1"/><path d="m6.695 2.328.375-1.172.578.188" style="stroke:none;fill-rule:nonzero;fill:#fcd116;fill-opacity:1"/><path d="m6.25.95.988.726.356-.5" style="stroke:none;fill-rule:nonzero;fill:#fcd116;fill-opacity:1"/><path d="M6.25.95h1.219v.616M12.5.094l-.375 1.176.578.19" style="stroke:none;fill-rule:nonzero;fill:#fcd116;fill-opacity:1"/><path d="m12.5.094.375 1.176-.578.19" style="stroke:none;fill-rule:nonzero;fill:#fcd116;fill-opacity:1"/><path d="M13.66.95h-1.219v.616" style="stroke:none;fill-rule:nonzero;fill:#fcd116;fill-opacity:1"/><path d="m13.66.95-.988.726-.356-.5" style="stroke:none;fill-rule:nonzero;fill:#fcd116;fill-opacity:1"/><path d="m13.215 2.328-.375-1.172-.578.188" style="stroke:none;fill-rule:nonzero;fill:#fcd116;fill-opacity:1"/><path d="m13.215 2.328-.985-.726.36-.497" style="stroke:none;fill-rule:nonzero;fill:#fcd116;fill-opacity:1"/><path d="m11.785 2.328.985-.726-.36-.497" style="stroke:none;fill-rule:nonzero;fill:#fcd116;fill-opacity:1"/><path d="m11.785 2.328.375-1.172.578.188" style="stroke:none;fill-rule:nonzero;fill:#fcd116;fill-opacity:1"/><path d="m11.34.95.988.726.356-.5" style="stroke:none;fill-rule:nonzero;fill:#fcd116;fill-opacity:1"/><path d="M11.34.95h1.219v.616M17.59.094l-.375 1.176.578.19" style="stroke:none;fill-rule:nonzero;fill:#fcd116;fill-opacity:1"/><path d="m17.59.094.375 1.176-.578.19" style="stroke:none;fill-rule:nonzero;fill:#fcd116;fill-opacity:1"/><path d="M18.75.95h-1.219v.616" style="stroke:none;fill-rule:nonzero;fill:#fcd116;fill-opacity:1"/><path d="m18.75.95-.988.726-.356-.5" style="stroke:none;fill-rule:nonzero;fill:#fcd116;fill-opacity:1"/><path d="m18.305 2.328-.375-1.172-.578.188" style="stroke:none;fill-rule:nonzero;fill:#fcd116;fill-opacity:1"/><path d="m18.305 2.328-.985-.726.36-.497" style="stroke:none;fill-rule:nonzero;fill:#fcd116;fill-opacity:1"/><path d="m16.875 2.328.984-.726-.359-.497" style="stroke:none;fill-rule:nonzero;fill:#fcd116;fill-opacity:1"/><path d="m16.875 2.328.375-1.172.578.188" style="stroke:none;fill-rule:nonzero;fill:#fcd116;fill-opacity:1"/><path d="m16.43.95.988.726.355-.5" style="stroke:none;fill-rule:nonzero;fill:#fcd116;fill-opacity:1"/><path d="M16.43.95h1.218v.616" style="stroke:none;fill-rule:nonzero;fill:#fcd116;fill-opacity:1"/><path d="M3.996 9.527c.297.563.754 1.02 1.309 1.317a4.45 4.45 0 0 0-.442-1.781Zm0 0" style="stroke:none;fill-rule:nonzero;fill:#ce1126;fill-opacity:1"/><path d="M3.52 7.707c.406.86-1.06 2.918 1.386 3.398A2.5 2.5 0 0 1 4.48 9.45a2.76 2.76 0 0 1 1.27 1.219c.64-2.355-1.64-2.211-2.23-2.961M7.41 16.508l-.375 1.172.578.191" style="stroke:none;fill-rule:nonzero;fill:#fcd116;fill-opacity:1"/><path d="m7.41 16.508.375 1.172-.578.191" style="stroke:none;fill-rule:nonzero;fill:#fcd116;fill-opacity:1"/><path d="M8.57 17.36H7.352v.617" style="stroke:none;fill-rule:nonzero;fill:#fcd116;fill-opacity:1"/><path d="m8.57 17.36-.988.726-.355-.5" style="stroke:none;fill-rule:nonzero;fill:#fcd116;fill-opacity:1"/><path d="m8.125 18.742-.375-1.176-.578.192" style="stroke:none;fill-rule:nonzero;fill:#fcd116;fill-opacity:1"/><path d="m8.125 18.742-.984-.726.359-.5" style="stroke:none;fill-rule:nonzero;fill:#fcd116;fill-opacity:1"/><path d="m6.695 18.742.985-.726-.36-.5" style="stroke:none;fill-rule:nonzero;fill:#fcd116;fill-opacity:1"/><path d="m6.695 18.742.375-1.176.578.192" style="stroke:none;fill-rule:nonzero;fill:#fcd116;fill-opacity:1"/><path d="m6.25 17.36.988.726.356-.5" style="stroke:none;fill-rule:nonzero;fill:#fcd116;fill-opacity:1"/><path d="M6.25 17.36h1.219v.617M12.5 16.508l-.375 1.172.578.191" style="stroke:none;fill-rule:nonzero;fill:#fcd116;fill-opacity:1"/><path d="m12.5 16.508.375 1.172-.578.191" style="stroke:none;fill-rule:nonzero;fill:#fcd116;fill-opacity:1"/><path d="M13.66 17.36h-1.219v.617" style="stroke:none;fill-rule:nonzero;fill:#fcd116;fill-opacity:1"/><path d="m13.66 17.36-.988.726-.356-.5" style="stroke:none;fill-rule:nonzero;fill:#fcd116;fill-opacity:1"/><path d="m13.215 18.742-.375-1.176-.578.192" style="stroke:none;fill-rule:nonzero;fill:#fcd116;fill-opacity:1"/><path d="m13.215 18.742-.985-.726.36-.5" style="stroke:none;fill-rule:nonzero;fill:#fcd116;fill-opacity:1"/><path d="m11.785 18.742.985-.726-.36-.5" style="stroke:none;fill-rule:nonzero;fill:#fcd116;fill-opacity:1"/><path d="m11.785 18.742.375-1.176.578.192" style="stroke:none;fill-rule:nonzero;fill:#fcd116;fill-opacity:1"/><path d="m11.34 17.36.988.726.356-.5" style="stroke:none;fill-rule:nonzero;fill:#fcd116;fill-opacity:1"/><path d="M11.34 17.36h1.219v.617M17.59 16.508l-.375 1.172.578.191" style="stroke:none;fill-rule:nonzero;fill:#fcd116;fill-opacity:1"/><path d="m17.59 16.508.375 1.172-.578.191" style="stroke:none;fill-rule:nonzero;fill:#fcd116;fill-opacity:1"/><path d="M18.75 17.36h-1.219v.617" style="stroke:none;fill-rule:nonzero;fill:#fcd116;fill-opacity:1"/><path d="m18.75 17.36-.988.726-.356-.5" style="stroke:none;fill-rule:nonzero;fill:#fcd116;fill-opacity:1"/><path d="m18.305 18.742-.375-1.176-.578.192" style="stroke:none;fill-rule:nonzero;fill:#fcd116;fill-opacity:1"/><path d="m18.305 18.742-.985-.726.36-.5" style="stroke:none;fill-rule:nonzero;fill:#fcd116;fill-opacity:1"/><path d="m16.875 18.742.984-.726-.359-.5" style="stroke:none;fill-rule:nonzero;fill:#fcd116;fill-opacity:1"/><path d="m16.875 18.742.375-1.176.578.192" style="stroke:none;fill-rule:nonzero;fill:#fcd116;fill-opacity:1"/><path d="m16.43 17.36.988.726.355-.5" style="stroke:none;fill-rule:nonzero;fill:#fcd116;fill-opacity:1"/><path d="M16.43 17.36h1.218v.617" style="stroke:none;fill-rule:nonzero;fill:#fcd116;fill-opacity:1"/></svg>
